ix/routing-2_bold.svg

<svg viewBox="0 0 24 24" fill="none" xmlns="http://www.w3.org/2000/svg" height="1em" width="1em">
  <path d="M11.9975 19.75H9.3175C8.1575 19.75 7.1475 19.05 6.7475 17.97C6.3375 16.89 6.6375 15.7 7.5075 14.93L15.4975 7.94C15.9775 7.52 15.9875 6.95 15.8475 6.56C15.6975 6.17 15.3175 5.75 14.6775 5.75H11.9975C11.5875 5.75 11.2475 5.41 11.2475 5C11.2475 4.59 11.5875 4.25 11.9975 4.25H14.6775C15.8375 4.25 16.8475 4.95 17.2475 6.03C17.6575 7.11 17.3575 8.3 16.4875 9.07L8.4975 16.06C8.0175 16.48 8.0075 17.05 8.1475 17.44C8.2975 17.83 8.6775 18.25 9.3175 18.25H11.9975C12.4075 18.25 12.7475 18.59 12.7475 19C12.7475 19.41 12.4075 19.75 11.9975 19.75Z" fill="#292D32"/>
  <path d="M20 15H17C15.9 15 15 15.9 15 17V20C15 21.1 15.9 22 17 22H20C21.1 22 22 21.1 22 20V17C22 15.9 21.1 15 20 15ZM18.51 19.5C17.96 19.5 17.51 19.05 17.51 18.5C17.51 17.95 17.95 17.5 18.51 17.5H18.52C19.07 17.5 19.52 17.95 19.52 18.5C19.52 19.05 19.07 19.5 18.51 19.5Z" fill="#292D32"/>
  <path d="M5.46875 2C3.53875 2 1.96875 3.57 1.96875 5.5C1.96875 7.43 3.53875 9 5.46875 9C7.39875 9 8.96875 7.43 8.96875 5.5C8.96875 3.57 7.40875 2 5.46875 2ZM5.50875 6.5C4.95875 6.5 4.50875 6.05 4.50875 5.5C4.50875 4.95 4.94875 4.5 5.50875 4.5H5.51875C6.06875 4.5 6.51875 4.95 6.51875 5.5C6.51875 6.05 6.06875 6.5 5.50875 6.5Z" fill="#292D32"/>
</svg>

<svg viewBox="0 0 24 24" fill="none" xmlns="http://www.w3.org/2000/svg" height="1em" width="1em">
  <path d="M11.998 19.75h-2.68c-1.16 0-2.17-.7-2.57-1.78-.41-1.08-.11-2.27.76-3.04l7.99-6.99c.48-.42.49-.99.35-1.38-.15-.39-.53-.81-1.17-.81h-2.68c-.41 0-.75-.34-.75-.75s.34-.75.75-.75h2.68c1.16 0 2.17.7 2.57 1.78.41 1.08.11 2.27-.76 3.04l-7.99 6.99c-.48.42-.49.99-.35 1.38.15.39.53.81 1.17.81h2.68c.41 0 .75.34.75.75s-.34.75-.75.75ZM20 15h-3c-1.1 0-2 .9-2 2v3c0 1.1.9 2 2 2h3c1.1 0 2-.9 2-2v-3c0-1.1-.9-2-2-2Zm-1.49 4.5c-.55 0-1-.45-1-1s.44-1 1-1h.01c.55 0 1 .45 1 1s-.45 1-1.01 1ZM5.469 2c-1.93 0-3.5 1.57-3.5 3.5S3.539 9 5.469 9s3.5-1.57 3.5-3.5S7.409 2 5.469 2Zm.04 4.5c-.55 0-1-.45-1-1s.44-1 1-1h.01c.55 0 1 .45 1 1s-.45 1-1.01 1Z" fill="#292D32"/>
</svg>
